src/svg/geolocation.svg

<svg xmlns="http://www.w3.org/2000/svg" width="1000" height="1000" viewBox="0 0 1000 1000"><path fill-rule="evenodd" clip-rule="evenodd" fill="#020202" d="M809.529 739.641h-215.731l-93.798 112.536-93.744-112.536h-215.73c-46.598 0-84.402-37.832-84.402-84.43v-422.038c0-46.597 37.805-84.348 84.402-84.348h619.004c46.597 0 84.348 37.751 84.348 84.348v422.038c-.001 46.598-37.752 84.43-84.349 84.43zm0-478.279c0-15.578-12.639-28.189-28.189-28.189h-562.626c-15.605 0-28.188 12.611-28.188 28.189v365.742c0 15.496 12.583 28.106 28.188 28.106h210.896l70.39 84.431 70.39-84.43h210.95c15.551 0 28.189-12.61 28.189-28.106v-365.743zm-450.2 140.657c0-62.752 28.135-140.656 141.385-140.726 111.822-.082 139.956 77.974 139.956 140.726 0 84.43-140.67 253.192-140.67 253.192s-140.671-168.763-140.671-253.192zm196.884 0c0-31.088-25.112-56.31-56.213-56.31-31.102 0-56.323 25.222-56.323 56.31s25.222 56.24 56.323 56.24 56.213-25.153 56.213-56.24z"/></svg>

<?xml version="1.0" encoding="utf-8"?>
<!-- Generator: Adobe Illustrator 16.0.0, SVG Export Plug-In . SVG Version: 6.00 Build 0)  -->
<!DOCTYPE svg PUBLIC "-//W3C//DTD SVG 1.1//EN" "http://www.w3.org/Graphics/SVG/1.1/DTD/svg11.dtd">
<svg version="1.1" id="Layer_1" xmlns="http://www.w3.org/2000/svg" xmlns:xlink="http://www.w3.org/1999/xlink" x="0px" y="0px"
	 width="1000px" height="1000px" viewBox="0 0 1000 1000" enable-background="new 0 0 1000 1000" xml:space="preserve">
<path fill-rule="evenodd" clip-rule="evenodd" fill="#020202" d="M809.529,739.641H593.798L500,852.177l-93.744-112.536h-215.73
	c-46.598,0-84.402-37.832-84.402-84.43V233.173c0-46.597,37.805-84.348,84.402-84.348h619.004c46.597,0,84.348,37.751,84.348,84.348
	v422.038C893.877,701.809,856.126,739.641,809.529,739.641L809.529,739.641z M809.529,261.362c0-15.578-12.639-28.189-28.189-28.189
	H218.714c-15.605,0-28.188,12.611-28.188,28.189v365.742c0,15.496,12.583,28.106,28.188,28.106h210.896L500,739.641l70.39-84.43
	h210.95c15.551,0,28.189-12.61,28.189-28.106V261.362L809.529,261.362z M359.329,402.019c0-62.752,28.135-140.656,141.385-140.726
	c111.822-0.082,139.956,77.974,139.956,140.726c0,84.43-140.67,253.192-140.67,253.192S359.329,486.448,359.329,402.019
	L359.329,402.019z M556.213,402.019c0-31.088-25.112-56.31-56.213-56.31c-31.102,0-56.323,25.222-56.323,56.31
	s25.222,56.24,56.323,56.24C531.101,458.259,556.213,433.106,556.213,402.019L556.213,402.019z"/>
</svg>
